assets/imgs/04.svg

<?xml version="1.0" encoding="UTF-8" standalone="no"?>
<svg
   width="70"
   height="25"
   viewBox="0 0 70 60"
   fill="none"
   version="1.1"
   id="svg325"
   sodipodi:docname="04.svg"
   inkscape:version="1.2.2 (b0a8486541, 2022-12-01)"
   xmlns:inkscape="http://www.inkscape.org/namespaces/inkscape"
   xmlns:sodipodi="http://sodipodi.sourceforge.net/DTD/sodipodi-0.dtd"
   xmlns="http://www.w3.org/2000/svg"
   xmlns:svg="http://www.w3.org/2000/svg">
  <defs
     id="defs329" />
  <sodipodi:namedview
     id="namedview327"
     pagecolor="#ffffff"
     bordercolor="#666666"
     borderopacity="1.0"
     inkscape:showpageshadow="2"
     inkscape:pageopacity="0.0"
     inkscape:pagecheckerboard="0"
     inkscape:deskcolor="#d1d1d1"
     showgrid="false"
     inkscape:zoom="9.4440702"
     inkscape:cx="20.965537"
     inkscape:cy="53.313877"
     inkscape:window-width="2520"
     inkscape:window-height="1481"
     inkscape:window-x="2869"
     inkscape:window-y="24"
     inkscape:window-maximized="1"
     inkscape:current-layer="svg325" />
  <mask
     id="path-1-outside-1_285_1008"
     maskUnits="userSpaceOnUse"
     x="-1"
     y="33"
     width="70"
     height="44"
     fill="#000000">
    <rect
       fill="#ffffff"
       x="-1"
       y="33"
       width="70"
       height="44"
       id="rect318" />
    <path
       d="m 24.7338,55.016 c 0,-9.152 -2.432,-15.68 -6.08,-15.68 -3.648,0 -6.08,6.528 -6.08,15.68 0,9.344 2.432,15.808 6.08,15.808 3.648,0 6.08,-6.464 6.08,-15.808 z m 9.92,0 c 0,11.52 -5.696,18.368 -16,18.368 -10.30405,0 -16.00005,-6.848 -16.00005,-18.368 0,-11.328 5.696,-18.24 16.00005,-18.24 10.304,0 16,6.912 16,18.24 z M 61.6668,37.16 v 24.896 h 4.288 v 2.56 h -4.288 v 3.712 L 62.4988,73 h -10.944 l 0.832,-4.672 V 64.616 H 39.4588 V 60.84 l 16.256,-23.68 z m -19.648,24.896 h 10.368 V 46.312 L 42.0188,61.48 Z"
       id="path320" />
  </mask>
  <path
     d="m 27.7338,55.016 c 0,-4.7919 -0.6304,-9.1096 -1.8708,-12.3457 -1.1299,-2.9481 -3.3448,-6.3343 -7.2092,-6.3343 v 6 c 0.0019,0 0.002,1e-4 9e-4,0 -4e-4,-10e-5 -9e-4,-2e-4 -0.0014,-2e-4 -2e-4,-10e-5 -4e-4,-10e-5 -5e-4,-10e-5 -2e-4,-1e-4 -3e-4,-1e-4 -3e-4,-1e-4 0,0 10e-5,0 3e-4,1e-4 2e-4,0 6e-4,10e-5 0.001,3e-4 9e-4,2e-4 0.0024,7e-4 0.0045,0.0014 0.0041,0.0015 0.0116,0.0043 0.0225,0.0094 0.0427,0.0202 0.1542,0.0838 0.3209,0.2536 0.3541,0.3608 0.8135,1.0556 1.2588,2.2173 0.8876,2.3159 1.4733,5.8382 1.4733,10.1983 z m -9.08,-18.68 c -3.8645,0 -6.0794,3.3862 -7.2093,6.3343 -1.2404,3.2361 -1.87075,7.5538 -1.87075,12.3457 h 6.00005 c 0,-4.3601 0.5856,-7.8824 1.4732,-10.1983 0.4453,-1.1617 0.9047,-1.8565 1.2588,-2.2173 0.1667,-0.1698 0.2782,-0.2334 0.3209,-0.2536 0.0109,-0.0051 0.0184,-0.0079 0.0225,-0.0094 0.0022,-7e-4 0.0036,-0.0012 0.0045,-0.0014 5e-4,-2e-4 8e-4,-3e-4 10e-4,-3e-4 2e-4,-1e-4 3e-4,-1e-4 3e-4,-1e-4 0,0 -10e-5,0 -2e-4,1e-4 -2e-4,0 -4e-4,0 -6e-4,10e-5 -5e-4,0 -0.001,1e-4 -0.0014,2e-4 -0.0011,1e-4 -10e-4,0 0.001,0 z m -9.08005,18.68 c 0,4.8814 0.62885,9.2322 1.86965,12.479 1.1355,2.971 3.3529,6.329 7.2104,6.329 v -6 c -0.0016,0 -0.0027,0 -0.0033,-1e-4 -3e-4,0 -5e-4,0 -6e-4,0 -10e-5,0 -2e-4,0 -2e-4,0 0,0 0,0 10e-5,0 0,0 10e-5,0 10e-5,0 10e-5,0 0,0 -3e-4,-10e-5 -5e-4,-1e-4 -0.0027,-6e-4 -0.0072,-0.0022 -0.0045,-0.0015 -0.0121,-0.0044 -0.023,-0.0095 -0.0426,-0.02 -0.1529,-0.0824 -0.3178,-0.2497 C 17.951,67.2065 17.4928,66.5168 17.0481,65.353 16.1609,63.0318 15.5738,59.4786 15.5738,55.016 Z m 9.08005,18.808 c 3.8574,0 6.0748,-3.358 7.2103,-6.329 1.2408,-3.2468 1.8697,-7.5976 1.8697,-12.479 h -6 c 0,4.4626 -0.5872,8.0158 -1.4744,10.337 -0.4447,1.1638 -0.9029,1.8535 -1.2535,2.2094 -0.1649,0.1673 -0.2752,0.2297 -0.3178,0.2497 -0.0109,0.0051 -0.0185,0.008 -0.023,0.0095 -0.0044,0.0016 -0.0067,0.0021 -0.0072,0.0022 -3e-4,10e-5 -4e-4,10e-5 -3e-4,10e-5 0,0 10e-5,0 10e-5,0 1e-4,0 1e-4,0 1e-4,0 0,0 -1e-4,0 -2e-4,0 -10e-5,0 -3e-4,0 -6e-4,0 -6e-4,1e-4 -0.0017,1e-4 -0.0032,1e-4 z m 13,-18.808 c 0,5.3044 -1.3132,9.1102 -3.4101,11.5474 -2.0398,2.3706 -5.1415,3.8206 -9.5899,3.8206 v 6 c 5.8555,0 10.7538,-1.974 14.1381,-5.9074 3.327,-3.8668 4.8619,-9.245 4.8619,-15.4606 z m -13,15.368 c -4.4485,0 -7.5502,-1.45 -9.58995,-3.8206 C 6.9669,64.1262 5.65375,60.3204 5.65375,55.016 h -6 c 0,6.2156 1.53485,11.5938 4.8619,15.4606 C 7.89994,74.41 12.7982,76.384 18.6538,76.384 Z M 5.65375,55.016 c 0,-5.1973 1.30777,-8.9741 3.40764,-11.4085 2.04471,-2.3704 5.15181,-3.8315 9.59241,-3.8315 v -6 c -5.8635,0 -10.75639,1.9949 -14.13569,5.9125 -3.32413,3.8536 -4.86436,9.1968 -4.86436,15.3275 z M 18.6538,39.776 c 4.4405,0 7.5476,1.4611 9.5923,3.8315 2.0999,2.4344 3.4077,6.2112 3.4077,11.4085 h 6 c 0,-6.1307 -1.5403,-11.4739 -4.8644,-15.3275 C 29.4101,35.7709 24.5172,33.776 18.6538,33.776 Z m 43.013,-2.616 h 2.9999 v -3 h -2.9999 z m 0,24.896 h -3 v 3 h 3 z m 4.288,0 h 3 v -3 h -3 z m 0,2.56 v 3 h 3 v -3 z m -4.288,0 v -3 h -3 v 3 z m 0,3.712 h -3 v 0.265 l 0.0464,0.261 z M 62.4987,73 v 3 h 3.5815 L 65.4523,72.474 Z M 51.5547,73 48.6012,72.474 47.9733,76 h 3.5814 z m 0.832,-4.672 2.9536,0.526 0.0464,-0.261 v -0.265 z m 0,-3.712 h 3 v -3 h -3 z m -12.9279,0 h -3 v 3 h 3 z m 0,-3.776 -2.4733,-1.6979 -0.5267,0.7673 V 60.84 Z m 16.256,-23.68 v -3 h -1.5795 l -0.8938,1.3021 z M 42.0187,62.056 h -3 v 3 h 3 z m 10.368,0 v 3 h 3 v -3 z m 0,-15.744 h 3 v -9.7051 l -5.4766,8.0122 z M 42.0187,61.48 39.5421,59.7871 39.0187,60.5527 V 61.48 Z M 58.6668,37.16 v 24.896 h 5.9999 V 37.16 Z m 3,27.896 h 4.288 v -6 h -4.288 z m 1.288,-3 v 2.56 h 6 v -2.56 z m 3,-0.44 h -4.288 v 6 h 4.288 z m -7.288,3 v 3.712 h 5.9999 v -3.712 z m 0.0464,4.238 0.832,4.672 5.9071,-1.052 -0.832,-4.672 z M 62.4987,70 h -10.944 v 6 h 10.944 z m -7.9904,3.526 0.832,-4.672 -5.9071,-1.052 -0.832,4.672 z m 0.8784,-5.198 v -3.712 h -6 v 3.712 z m -3,-6.712 H 39.4588 v 6 h 12.9279 z m -9.9279,3 V 60.84 h -6 v 3.776 z m -0.5268,-2.0781 16.256,-23.68 -4.9465,-3.3958 -16.256,23.68 z M 55.7148,40.16 h 5.952 v -6 h -5.952 z M 42.0187,65.056 h 10.368 v -6 h -10.368 z m 13.368,-3 V 46.312 h -6 v 15.744 z m -5.4766,-17.4369 -10.368,15.168 4.9533,3.3858 10.368,-15.168 z M 39.0187,61.48 v 0.576 h 6 V 61.48 Z"
     fill="#ffffff"
     mask="url(#path-1-outside-1_285_1008)"
     id="path323"
     transform="translate(0.74120584,-24.353906)" />
</svg>

<svg width="67" height="30" viewBox="0 0 67 118" fill="none" xmlns="http://www.w3.org/2000/svg">
<mask id="path-1-outside-1_285_1008" maskUnits="userSpaceOnUse" x="-1" y="33" width="70" height="44" fill="black">
<rect fill="white" x="-1" y="33" width="70" height="44"/>
<path d="M24.7338 55.016C24.7338 45.864 22.3018 39.336 18.6538 39.336C15.0058 39.336 12.5738 45.864 12.5738 55.016C12.5738 64.36 15.0058 70.824 18.6538 70.824C22.3018 70.824 24.7338 64.36 24.7338 55.016ZM34.6538 55.016C34.6538 66.536 28.9578 73.384 18.6538 73.384C8.34975 73.384 2.65375 66.536 2.65375 55.016C2.65375 43.688 8.34975 36.776 18.6538 36.776C28.9578 36.776 34.6538 43.688 34.6538 55.016ZM61.6668 37.16V62.056H65.9548V64.616H61.6668V68.328L62.4988 73H51.5548L52.3868 68.328V64.616H39.4588V60.84L55.7148 37.16H61.6668ZM42.0188 62.056H52.3868V46.312L42.0188 61.48V62.056Z"/>
</mask>
<path d="M27.7338 55.016C27.7338 50.2241 27.1034 45.9064 25.863 42.6703C24.7331 39.7222 22.5182 36.336 18.6538 36.336V42.336C18.6557 42.336 18.6558 42.3361 18.6547 42.336C18.6543 42.3359 18.6538 42.3358 18.6533 42.3358C18.6531 42.3357 18.6529 42.3357 18.6528 42.3357C18.6526 42.3356 18.6525 42.3356 18.6525 42.3356C18.6525 42.3356 18.6526 42.3356 18.6528 42.3357C18.653 42.3357 18.6534 42.3358 18.6538 42.336C18.6547 42.3362 18.6562 42.3367 18.6583 42.3374C18.6624 42.3389 18.6699 42.3417 18.6808 42.3468C18.7235 42.367 18.835 42.4306 19.0017 42.6004C19.3558 42.9612 19.8152 43.656 20.2605 44.8177C21.1481 47.1336 21.7338 50.6559 21.7338 55.016H27.7338ZM18.6538 36.336C14.7893 36.336 12.5744 39.7222 11.4445 42.6703C10.2041 45.9064 9.57375 50.2241 9.57375 55.016H15.5738C15.5738 50.6559 16.1594 47.1336 17.047 44.8177C17.4923 43.656 17.9517 42.9612 18.3058 42.6004C18.4725 42.4306 18.584 42.367 18.6267 42.3468C18.6376 42.3417 18.6451 42.3389 18.6492 42.3374C18.6514 42.3367 18.6528 42.3362 18.6537 42.336C18.6542 42.3358 18.6545 42.3357 18.6547 42.3357C18.6549 42.3356 18.655 42.3356 18.655 42.3356C18.655 42.3356 18.6549 42.3356 18.6548 42.3357C18.6546 42.3357 18.6544 42.3357 18.6542 42.3358C18.6537 42.3358 18.6532 42.3359 18.6528 42.336C18.6517 42.3361 18.6518 42.336 18.6538 42.336V36.336ZM9.57375 55.016C9.57375 59.8974 10.2026 64.2482 11.4434 67.495C12.5789 70.466 14.7963 73.824 18.6538 73.824V67.824C18.6522 67.824 18.6511 67.824 18.6505 67.8239C18.6502 67.8239 18.65 67.8239 18.6499 67.8239C18.6498 67.8239 18.6497 67.8239 18.6497 67.8239C18.6497 67.8239 18.6497 67.8239 18.6498 67.8239C18.6498 67.8239 18.6499 67.8239 18.6499 67.8239C18.65 67.8239 18.6499 67.8239 18.6496 67.8238C18.6491 67.8237 18.6469 67.8232 18.6424 67.8216C18.6379 67.8201 18.6303 67.8172 18.6194 67.8121C18.5768 67.7921 18.4665 67.7297 18.3016 67.5624C17.951 67.2065 17.4928 66.5168 17.0481 65.353C16.1609 63.0318 15.5738 59.4786 15.5738 55.016H9.57375ZM18.6538 73.824C22.5112 73.824 24.7286 70.466 25.8641 67.495C27.1049 64.2482 27.7338 59.8974 27.7338 55.016H21.7338C21.7338 59.4786 21.1466 63.0318 20.2594 65.353C19.8147 66.5168 19.3565 67.2065 19.0059 67.5624C18.841 67.7297 18.7307 67.7921 18.6881 67.8121C18.6772 67.8172 18.6696 67.8201 18.6651 67.8216C18.6607 67.8232 18.6584 67.8237 18.6579 67.8238C18.6576 67.8239 18.6575 67.8239 18.6576 67.8239C18.6576 67.8239 18.6577 67.8239 18.6577 67.8239C18.6578 67.8239 18.6578 67.8239 18.6578 67.8239C18.6578 67.8239 18.6577 67.8239 18.6576 67.8239C18.6575 67.8239 18.6573 67.8239 18.657 67.8239C18.6564 67.824 18.6553 67.824 18.6538 67.824V73.824ZM31.6538 55.016C31.6538 60.3204 30.3406 64.1262 28.2437 66.5634C26.2039 68.934 23.1022 70.384 18.6538 70.384V76.384C24.5093 76.384 29.4076 74.41 32.7919 70.4766C36.1189 66.6098 37.6538 61.2316 37.6538 55.016H31.6538ZM18.6538 70.384C14.2053 70.384 11.1036 68.934 9.06385 66.5634C6.9669 64.1262 5.65375 60.3204 5.65375 55.016H-0.34625C-0.34625 61.2316 1.1886 66.6098 4.51565 70.4766C7.89994 74.41 12.7982 76.384 18.6538 76.384V70.384ZM5.65375 55.016C5.65375 49.8187 6.96152 46.0419 9.06139 43.6075C11.1061 41.2371 14.2132 39.776 18.6538 39.776V33.776C12.7903 33.776 7.89741 35.7709 4.51811 39.6885C1.19398 43.5421 -0.34625 48.8853 -0.34625 55.016H5.65375ZM18.6538 39.776C23.0943 39.776 26.2014 41.2371 28.2461 43.6075C30.346 46.0419 31.6538 49.8187 31.6538 55.016H37.6538C37.6538 48.8853 36.1135 43.5421 32.7894 39.6885C29.4101 35.7709 24.5172 33.776 18.6538 33.776V39.776ZM61.6668 37.16H64.6667V34.16H61.6668V37.16ZM61.6668 62.056H58.6668V65.056H61.6668V62.056ZM65.9548 62.056H68.9548V59.056H65.9548V62.056ZM65.9548 64.616V67.616H68.9548V64.616H65.9548ZM61.6668 64.616V61.616H58.6668V64.616H61.6668ZM61.6668 68.328H58.6668V68.593L58.7132 68.854L61.6668 68.328ZM62.4987 73V76H66.0802L65.4523 72.474L62.4987 73ZM51.5547 73L48.6012 72.474L47.9733 76H51.5547V73ZM52.3867 68.328L55.3403 68.854L55.3867 68.593V68.328H52.3867ZM52.3867 64.616H55.3867V61.616H52.3867V64.616ZM39.4588 64.616H36.4588V67.616H39.4588V64.616ZM39.4588 60.84L36.9855 59.1421L36.4588 59.9094V60.84H39.4588ZM55.7148 37.16V34.16H54.1353L53.2415 35.4621L55.7148 37.16ZM42.0187 62.056H39.0187V65.056H42.0187V62.056ZM52.3867 62.056V65.056H55.3867V62.056H52.3867ZM52.3867 46.312H55.3867V36.6069L49.9101 44.6191L52.3867 46.312ZM42.0187 61.48L39.5421 59.7871L39.0187 60.5527V61.48H42.0187ZM58.6668 37.16V62.056H64.6667V37.16H58.6668ZM61.6668 65.056H65.9548V59.056H61.6668V65.056ZM62.9548 62.056V64.616H68.9548V62.056H62.9548ZM65.9548 61.616H61.6668V67.616H65.9548V61.616ZM58.6668 64.616V68.328H64.6667V64.616H58.6668ZM58.7132 68.854L59.5452 73.526L65.4523 72.474L64.6203 67.802L58.7132 68.854ZM62.4987 70H51.5547V76H62.4987V70ZM54.5083 73.526L55.3403 68.854L49.4332 67.802L48.6012 72.474L54.5083 73.526ZM55.3867 68.328V64.616H49.3867V68.328H55.3867ZM52.3867 61.616H39.4588V67.616H52.3867V61.616ZM42.4588 64.616V60.84H36.4588V64.616H42.4588ZM41.932 62.5379L58.188 38.8579L53.2415 35.4621L36.9855 59.1421L41.932 62.5379ZM55.7148 40.16H61.6668V34.16H55.7148V40.16ZM42.0187 65.056H52.3867V59.056H42.0187V65.056ZM55.3867 62.056V46.312H49.3867V62.056H55.3867ZM49.9101 44.6191L39.5421 59.7871L44.4954 63.1729L54.8634 48.0049L49.9101 44.6191ZM39.0187 61.48V62.056H45.0187V61.48H39.0187Z" fill="white" mask="url(#path-1-outside-1_285_1008)"/>
</svg>
